X:1730
T:Farmors Brudpolska
A:Dalarna, lvdalen
C:e. Gyris Anders
M:3/4
O:Sweden
R:Polska
Z:Richard Robinson 
%%TUNEURL: http://www.leeds.ac.uk/music/Info/RRTuneBk/gettune/000007a7.html
%%ID:000007a7
K:D dorian
"tr"^c|\
(3A2A2^c2 A>c|(3A2A2^c2 A>c|e2 g/a/g/e/ f>g|\
f>e d^c d>e|f2 f/a/f/d/ e>^c|
(3A2A2^c2 A>c|(3A2A2^c2 A>c|e2 g/a/g/e/ f>g|\
f>e d^c d>e|f2 f/a/f/d/ e^c|1 ^c<d d3:|2 ^c<d d4::
(3a2a2b2 a>g|e2 g/a/g/e/ f>d|\
(3a2a2c'2 a>g|e2 g/a/g/e/ f>g|\
f>e d^c de|f2 f/a/f/d/ e>^c|
(3A2A2^c2 A>c|(3A2A2^c2 A>c|\
e2 g/a/g/e/ f>g|f>e d^c d>e|\
f2 f/a/f/d/ e>^c|^c<d d4:|
